TV/Source/Sky Movies Premiere.svg

<svg height="6.432409mm" viewBox="0 0 92.613124 22.792" width="26.137482mm" xmlns="http://www.w3.org/2000/svg" xmlns:xlink="http://www.w3.org/1999/xlink"><clipPath id="a"><path d="m211.635 579.373h82.8v24.803h-82.8z"/></clipPath><g clip-path="url(#a)" transform="matrix(1.25 0 0 -1.25 -269.986622 751.11425)"><g transform="translate(226.4163 596.9398)"><path d="m0 0-.55.55.887.887.55-.55zm1.987 1.987-.55-.55-.55.55h-1.1l-.887-.887.222.887h-2.741c-.353-.001-.667-.283-.667-.638 0-.169.067-.323.173-.438l.528-.522c.036-.037.053-.081.053-.117 0-.087-.052-.154-.189-.154h-1.112l-.168-.668h1.858c.353 0 .67.279.67.635 0 .168-.067.324-.174.438l-.535.53c-.03.03-.046.072-.046.109 0 .087.058.157.163.157h1.132l-.466-1.869h.888l.192.769.769-.769h1.1l2.536 2.537zm5.799 1.945v-18.213h-18.213v18.213l9.107-9.106z" fill="#fab215"/></g><g transform="translate(240.274 600.8914)"><path d="m0 0 4.132-4.144 4.133 4.144v-8.381h-1.868v4.062l-2.265-2.264-2.265 2.264v-4.062h-1.867z" fill="#fab215"/></g><g transform="translate(255.8449 596.6541)"><path d="m0 0c0 1.331-1.016 2.44-2.358 2.44s-2.358-1.109-2.358-2.44 1.016-2.44 2.358-2.44 2.358 1.109 2.358 2.44m-6.595 0c0 2.335 1.902 4.237 4.237 4.237s4.238-1.902 4.238-4.237-1.903-4.237-4.238-4.237-4.237 1.902-4.237 4.237" fill="#fab215"/></g><g transform="translate(257.0814 600.798)"><path d="m0 0h2.078l1.833-4.144 1.832 4.144h2.079l-3.911-8.381z" fill="#fab215"/></g><path d="m265.334 600.798h1.868v-8.288h-1.868z" fill="#fab215"/><g transform="translate(268.3572 600.798)"><path d="m0 0h5.136v-1.844h-3.269v-1.401h2.569v-1.798h-2.569v-1.401h3.269v-1.844h-5.136z" fill="#fab215"/></g><g transform="translate(273.9249 594.0393)"><path d="m0 0 1.412 1.155c.362-.572.957-1.027 1.529-1.027.549 0 .794.21.794.596 0 .373-.268.607-.968.922l-.467.21c-1.249.56-1.939 1.483-1.939 2.603 0 1.448 1.203 2.393 2.522 2.393.923 0 1.623-.222 2.323-1.039l-1.261-1.331c-.42.514-.677.619-1.062.619-.315 0-.642-.198-.642-.572 0-.432.361-.665 1.12-1.004l.445-.198c1.143-.514 1.808-1.342 1.808-2.487 0-1.494-1.096-2.462-2.638-2.462-1.33 0-2.404.548-2.976 1.622" fill="#fab215"/></g><g transform="translate(242.9821 587.0586)"><path d="m0 0c .607 0 1.051.514 1.051 1.075 0 .56-.444 1.061-1.051 1.061h-.841v-2.136zm-2.708 3.887h2.731c1.623 0 2.837-1.26 2.837-2.812 0-1.554-1.214-2.814-2.837-2.814h-.864v-2.661h-1.867z" fill="#fab215"/></g><g transform="translate(249.4599 587.5958)"><path d="m0 0c .502 0 .864.361.864.817 0 .455-.362.829-.864.829h-1.051v-1.646zm-1.051-4.938h-1.867v8.288h3.128c1.355 0 2.463-1.109 2.463-2.463 0-1.028-.63-1.938-1.587-2.299l2.685-3.526h-2.23l-2.568 3.362h-.024z" fill="#fab215"/></g><g transform="translate(253.3703 590.9456)"><path d="m0 0h5.136v-1.844h-3.269v-1.401h2.569v-1.797h-2.569v-1.402h3.269v-1.843h-5.136z" fill="#fab215"/></g><g transform="translate(259.5209 591.0393)"><path d="m0 0 4.133-4.144 4.132 4.144v-8.381h-1.868v4.062l-2.264-2.264-2.265 2.264v-4.062h-1.868z" fill="#fab215"/></g><path d="m268.941 590.946h1.868v-8.287h-1.868z" fill="#fab215"/><g transform="translate(271.9637 590.9456)"><path d="m0 0h5.136v-1.844h-3.268v-1.401h2.568v-1.797h-2.568v-1.402h3.268v-1.843h-5.136z" fill="#fab215"/></g><g transform="translate(281.0334 587.5958)"><path d="m0 0c .502 0 .864.361.864.817 0 .455-.362.829-.864.829h-1.051v-1.646zm-1.051-4.938h-1.867v8.288h3.128c1.355 0 2.463-1.109 2.463-2.463 0-1.028-.63-1.938-1.587-2.299l2.685-3.526h-2.23l-2.568 3.362h-.024z" fill="#fab215"/></g><g transform="translate(284.9438 590.9456)"><path d="m0 0h5.136v-1.844h-3.269v-1.401h2.569v-1.797h-2.569v-1.402h3.269v-1.843h-5.136z" fill="#fab215"/></g></g></svg>

<?xml version="1.0" encoding="UTF-8" standalone="no"?>
<!-- Created with Inkscape (http://www.inkscape.org/) -->

<svg
   xmlns:dc="http://purl.org/dc/elements/1.1/"
   xmlns:cc="http://creativecommons.org/ns#"
   xmlns:rdf="http://www.w3.org/1999/02/22-rdf-syntax-ns#"
   xmlns:svg="http://www.w3.org/2000/svg"
   xmlns="http://www.w3.org/2000/svg"
   xmlns:sodipodi="http://sodipodi.sourceforge.net/DTD/sodipodi-0.dtd"
   xmlns:inkscape="http://www.inkscape.org/namespaces/inkscape"
   width="26.137482mm"
   height="6.4324088mm"
   viewBox="0 0 92.613124 22.792"
   id="svg313656"
   version="1.1"
   inkscape:version="0.91 r13725"
   sodipodi:docname="Sky Movies Premiere.svg">
  <defs
     id="defs313658">
    <clipPath
       clipPathUnits="userSpaceOnUse"
       id="clipPath72370">
      <path
         d="m 211.635,579.373 82.8,0 0,24.803 -82.8,0 0,-24.803 z"
         id="path72372"
         inkscape:connector-curvature="0" />
    </clipPath>
  </defs>
  <sodipodi:namedview
     id="base"
     pagecolor="#ffffff"
     bordercolor="#666666"
     borderopacity="1.0"
     inkscape:pageopacity="0.0"
     inkscape:pageshadow="2"
     inkscape:zoom="1.4"
     inkscape:cx="-403.54821"
     inkscape:cy="-107.63054"
     inkscape:document-units="px"
     inkscape:current-layer="layer1"
     showgrid="false"
     inkscape:window-width="1920"
     inkscape:window-height="1017"
     inkscape:window-x="-8"
     inkscape:window-y="-8"
     inkscape:window-maximized="1"
     fit-margin-top="0"
     fit-margin-left="0"
     fit-margin-right="0"
     fit-margin-bottom="0" />
  <metadata
     id="metadata313661">
    <rdf:RDF>
      <cc:Work
         rdf:about="">
        <dc:format>image/svg+xml</dc:format>
        <dc:type
           rdf:resource="http://purl.org/dc/dcmitype/StillImage" />
        <dc:title />
      </cc:Work>
    </rdf:RDF>
  </metadata>
  <g
     inkscape:label="Layer 1"
     inkscape:groupmode="layer"
     id="layer1"
     transform="translate(-299.40772,-463.82335)">
    <g
       transform="matrix(1.25,0,0,-1.25,29.421098,1214.9376)"
       id="g72366">
      <g
         id="g72368"
         clip-path="url(#clipPath72370)">
        <g
           id="g72374"
           transform="translate(226.4163,596.9398)">
          <path
             d="M 0,0 -0.55,0.55 0.337,1.437 0.887,0.887 0,0 Z m 1.987,1.987 -0.55,-0.55 -0.55,0.55 -1.1,0 L -1.1,1.1 l 0.222,0.887 -2.741,0 C -3.972,1.986 -4.286,1.704 -4.286,1.349 c 0,-0.169 0.067,-0.323 0.173,-0.438 l 0.528,-0.522 c 0.036,-0.037 0.053,-0.081 0.053,-0.117 0,-0.087 -0.052,-0.154 -0.189,-0.154 l -1.112,0 -0.168,-0.668 1.858,0 c 0.353,0 0.67,0.279 0.67,0.635 0,0.168 -0.067,0.324 -0.174,0.438 l -0.535,0.53 c -0.03,0.03 -0.046,0.072 -0.046,0.109 0,0.087 0.058,0.157 0.163,0.157 l 1.132,0 -0.466,-1.869 0.888,0 0.192,0.769 0.769,-0.769 1.1,0 2.536,2.537 -1.099,0 z m 5.799,1.945 0,-18.213 -18.213,0 0,18.213 9.107,-9.106 9.106,9.106 z"
             style="fill:#fab215;fill-opacity:1;fill-rule:nonzero;stroke:none"
             id="path72376"
             inkscape:connector-curvature="0" />
        </g>
        <g
           id="g72378"
           transform="translate(240.274,600.8914)">
          <path
             d="M 0,0 4.132,-4.144 8.265,0 l 0,-8.381 -1.868,0 0,4.062 -2.265,-2.264 -2.265,2.264 0,-4.062 L 0,-8.381 0,0 Z"
             style="fill:#fab215;fill-opacity:1;fill-rule:nonzero;stroke:none"
             id="path72380"
             inkscape:connector-curvature="0" />
        </g>
        <g
           id="g72382"
           transform="translate(255.8449,596.6541)">
          <path
             d="M 0,0 C 0,1.331 -1.016,2.44 -2.358,2.44 -3.7,2.44 -4.716,1.331 -4.716,0 c 0,-1.331 1.016,-2.44 2.358,-2.44 C -1.016,-2.44 0,-1.331 0,0 m -6.595,0 c 0,2.335 1.902,4.237 4.237,4.237 2.335,0 4.238,-1.902 4.238,-4.237 0,-2.335 -1.903,-4.237 -4.238,-4.237 -2.335,0 -4.237,1.902 -4.237,4.237"
             style="fill:#fab215;fill-opacity:1;fill-rule:nonzero;stroke:none"
             id="path72384"
             inkscape:connector-curvature="0" />
        </g>
        <g
           id="g72386"
           transform="translate(257.0814,600.798)">
          <path
             d="M 0,0 2.078,0 3.911,-4.144 5.743,0 7.822,0 3.911,-8.381 0,0 Z"
             style="fill:#fab215;fill-opacity:1;fill-rule:nonzero;stroke:none"
             id="path72388"
             inkscape:connector-curvature="0" />
        </g>
        <path
           d="m 265.334,600.798 1.868,0 0,-8.288 -1.868,0 0,8.288 z"
           style="fill:#fab215;fill-opacity:1;fill-rule:nonzero;stroke:none"
           id="path72390"
           inkscape:connector-curvature="0" />
        <g
           id="g72392"
           transform="translate(268.3572,600.798)">
          <path
             d="m 0,0 5.136,0 0,-1.844 -3.269,0 0,-1.401 2.569,0 0,-1.798 -2.569,0 0,-1.401 3.269,0 0,-1.844 L 0,-8.288 0,0 Z"
             style="fill:#fab215;fill-opacity:1;fill-rule:nonzero;stroke:none"
             id="path72394"
             inkscape:connector-curvature="0" />
        </g>
        <g
           id="g72396"
           transform="translate(273.9249,594.0393)">
          <path
             d="M 0,0 1.412,1.155 C 1.774,0.583 2.369,0.128 2.941,0.128 c 0.549,0 0.794,0.21 0.794,0.596 0,0.373 -0.268,0.607 -0.968,0.922 L 2.3,1.856 c -1.249,0.56 -1.939,1.483 -1.939,2.603 0,1.448 1.203,2.393 2.522,2.393 0.923,0 1.623,-0.222 2.323,-1.039 L 3.945,4.482 C 3.525,4.996 3.268,5.101 2.883,5.101 2.568,5.101 2.241,4.903 2.241,4.529 2.241,4.097 2.602,3.864 3.361,3.525 L 3.806,3.327 C 4.949,2.813 5.614,1.985 5.614,0.84 5.614,-0.654 4.518,-1.622 2.976,-1.622 1.646,-1.622 0.572,-1.074 0,0"
             style="fill:#fab215;fill-opacity:1;fill-rule:nonzero;stroke:none"
             id="path72398"
             inkscape:connector-curvature="0" />
        </g>
        <g
           id="g72400"
           transform="translate(242.9821,587.0586)">
          <path
             d="M 0,0 C 0.607,0 1.051,0.514 1.051,1.075 1.051,1.635 0.607,2.136 0,2.136 l -0.841,0 L -0.841,0 0,0 Z m -2.708,3.887 2.731,0 c 1.623,0 2.837,-1.26 2.837,-2.812 0,-1.554 -1.214,-2.814 -2.837,-2.814 l -0.864,0 0,-2.661 -1.867,0 0,8.287 z"
             style="fill:#fab215;fill-opacity:1;fill-rule:nonzero;stroke:none"
             id="path72402"
             inkscape:connector-curvature="0" />
        </g>
        <g
           id="g72404"
           transform="translate(249.4599,587.5958)">
          <path
             d="M 0,0 C 0.502,0 0.864,0.361 0.864,0.817 0.864,1.272 0.502,1.646 0,1.646 l -1.051,0 L -1.051,0 0,0 Z m -1.051,-4.938 -1.867,0 0,8.288 3.128,0 c 1.355,0 2.463,-1.109 2.463,-2.463 0,-1.028 -0.63,-1.938 -1.587,-2.299 l 2.685,-3.526 -2.23,0 -2.568,3.362 -0.024,0 0,-3.362 z"
             style="fill:#fab215;fill-opacity:1;fill-rule:nonzero;stroke:none"
             id="path72406"
             inkscape:connector-curvature="0" />
        </g>
        <g
           id="g72408"
           transform="translate(253.3703,590.9456)">
          <path
             d="m 0,0 5.136,0 0,-1.844 -3.269,0 0,-1.401 2.569,0 0,-1.797 -2.569,0 0,-1.402 3.269,0 0,-1.843 L 0,-8.287 0,0 Z"
             style="fill:#fab215;fill-opacity:1;fill-rule:nonzero;stroke:none"
             id="path72410"
             inkscape:connector-curvature="0" />
        </g>
        <g
           id="g72412"
           transform="translate(259.5209,591.0393)">
          <path
             d="M 0,0 4.133,-4.144 8.265,0 l 0,-8.381 -1.868,0 0,4.062 -2.264,-2.264 -2.265,2.264 0,-4.062 L 0,-8.381 0,0 Z"
             style="fill:#fab215;fill-opacity:1;fill-rule:nonzero;stroke:none"
             id="path72414"
             inkscape:connector-curvature="0" />
        </g>
        <path
           d="m 268.941,590.946 1.868,0 0,-8.287 -1.868,0 0,8.287 z"
           style="fill:#fab215;fill-opacity:1;fill-rule:nonzero;stroke:none"
           id="path72416"
           inkscape:connector-curvature="0" />
        <g
           id="g72418"
           transform="translate(271.9637,590.9456)">
          <path
             d="m 0,0 5.136,0 0,-1.844 -3.268,0 0,-1.401 2.568,0 0,-1.797 -2.568,0 0,-1.402 3.268,0 0,-1.843 L 0,-8.287 0,0 Z"
             style="fill:#fab215;fill-opacity:1;fill-rule:nonzero;stroke:none"
             id="path72420"
             inkscape:connector-curvature="0" />
        </g>
        <g
           id="g72422"
           transform="translate(281.0334,587.5958)">
          <path
             d="M 0,0 C 0.502,0 0.864,0.361 0.864,0.817 0.864,1.272 0.502,1.646 0,1.646 l -1.051,0 L -1.051,0 0,0 Z m -1.051,-4.938 -1.867,0 0,8.288 3.128,0 c 1.355,0 2.463,-1.109 2.463,-2.463 0,-1.028 -0.63,-1.938 -1.587,-2.299 l 2.685,-3.526 -2.23,0 -2.568,3.362 -0.024,0 0,-3.362 z"
             style="fill:#fab215;fill-opacity:1;fill-rule:nonzero;stroke:none"
             id="path72424"
             inkscape:connector-curvature="0" />
        </g>
        <g
           id="g72426"
           transform="translate(284.9438,590.9456)">
          <path
             d="m 0,0 5.136,0 0,-1.844 -3.269,0 0,-1.401 2.569,0 0,-1.797 -2.569,0 0,-1.402 3.269,0 0,-1.843 L 0,-8.287 0,0 Z"
             style="fill:#fab215;fill-opacity:1;fill-rule:nonzero;stroke:none"
             id="path72428"
             inkscape:connector-curvature="0" />
        </g>
      </g>
    </g>
  </g>
</svg>
